X:16671
T:The East Is Red
T:Northern Shensi Folk Song
S:Revolutionary Songs of China
M:2/4
L:1/8
Q:1/4=100
K:C
% major/mixolydian hexatonic
c2 cd|G4   |F2 FD|G4   |
c2 cc|df dc|f2 FD|G4   |
c2 G2|FF ED|C2 c2|G2 AG|
F2 FD|GA GF|GF ED|C4-  |C2|]
